svg/u1fae7.svg

<svg viewBox="0 0 128 128" xmlns="http://www.w3.org/2000/svg" xmlns:xlink="http://www.w3.org/1999/xlink">
  <g>
    <g>
      <g>
        <circle cx="106.07" cy="57.86" fill="#4DD0E1" opacity="0.42" r="16.87"/>
        <path d="M104.21,46.15c0.71,1.48-1.55,3.36-2.43,4.53c-2.29,3.05-1.1,5.42-2.81,8.2 c-1.29,2.09-5.38,3.53-6.15-1.58c-0.48-3.2,1.52-6.82,2.88-8.3C100.21,44.1,103.62,44.93,104.21,46.15z" fill="#FFFFFF"/>
        <path d="M106.07,76.22c-10.13,0-18.37-8.24-18.37-18.37s8.24-18.37,18.37-18.37s18.37,8.24,18.37,18.37 S116.19,76.22,106.07,76.22z M105.72,42.08c-8.7,0-15.78,7.08-15.78,15.78s7.08,15.78,15.78,15.78s15.78-7.08,15.78-15.78 S114.43,42.08,105.72,42.08z" fill="#4DC6E1"/>
      </g>
      <g>
        <g>
          <circle cx="89.27" cy="99.87" fill="#4DD0E1" opacity="0.42" r="21.65"/>
          <path d="M89.27,123.52c-13.04,0-23.65-10.61-23.65-23.65c0-13.04,10.61-23.65,23.65-23.65 c13.04,0,23.65,10.61,23.65,23.65C112.92,112.91,102.31,123.52,89.27,123.52z M89.87,79.11c-11.52,0-20.89,9.37-20.89,20.89 c0,11.52,9.37,20.89,20.89,20.89c11.52,0,20.89-9.37,20.89-20.89C110.76,88.48,101.39,79.11,89.87,79.11z" fill="#4DC6E1"/>
          <path d="M84.02,83.31c4.4-0.3,5.92,2.84,4.83,5.33c-1.4,3.2-4.66,2.06-7.53,5.17 c-1.98,2.15-6.21,4.48-6.8-0.27C74,89.34,78.65,83.68,84.02,83.31z" fill="#FFFFFF" opacity="0.7"/>
        </g>
        <path d="M96.72,89c2.65-0.01,2.97-2.99,1.55-4.58c-1.64-2.45-7.13-2.19-5.83,1.85 C93.01,88.05,94.05,89.01,96.72,89z" fill="#FFFFFF"/>
      </g>
      <g>
        <circle cx="42.95" cy="43.86" fill="#4DD0E1" opacity="0.42" r="38.37"/>
        <path d="M38.56,14.73c4.39,1.51,5.55,5.43,4.2,8.78c-1.24,3.08-5.9,4.47-8.82,6.06 c-4.45,2.41-7.68,5.54-10.09,9.99c-2.33,4.3-8.61,6.04-9.47-0.21c-0.67-4.89,2.37-11.85,5.22-15.42 c2.52-3.15,5.98-5.96,9.6-7.76C31.75,14.91,35.79,13.78,38.56,14.73z" fill="#FFFFFF" opacity="0.7"/>
        <path d="M58.99,16.94c1.8,1.52,2.01,4.31-0.48,5.18c-1.11,0.31-2.27-0.19-3.42-0.27 c-2.34-0.16-3.31,0.67-5.31-0.18c-2.98-1.28-4.21-3.86-2.79-5.98c0.7-1.04,2.03-1.57,3.21-1.8 C53.4,13.27,56.74,14.68,58.99,16.94z" fill="#FFFFFF"/>
        <path d="M43.45,84.23c-21.99,0-39.88-17.89-39.88-39.88S21.46,4.48,43.45,4.48s39.88,17.89,39.88,39.88 S65.43,84.23,43.45,84.23z M44.07,8.7C24.01,8.7,7.7,25.01,7.7,45.07s16.32,36.37,36.37,36.37s36.37-16.32,36.37-36.37 S64.12,8.7,44.07,8.7z" fill="#4DC6E1"/>
      </g>
    </g>
    <path d="M72.05,50.5c-3.19-0.93-3.07,2.5-6.43,7.97c-2.24,3.64-6.96,8.37-14.64,10.26 c-4.52,1.11-6.55,2.06-6.68,3.72c-0.23,2.83,3.62,3.59,9.21,2.13C68.33,70.73,78.82,52.47,72.05,50.5z" fill="#FFFFFF"/>
    <path d="M105.63,104.96c-2.44-0.83-1.86,2.93-6.68,6.32c-5.14,3.62-8.25,2.75-8.43,4.8 c-0.19,2.19,5.16,2.18,10.73-1.97C106.08,110.53,108.1,105.8,105.63,104.96z" fill="#FFFFFF"/>
    <path d="M119.38,59.85c0.58-3.07-0.15-9.52-3.26-7.46c-1.25,0.83,0.72,4.38,0.12,7.43 c-0.8,4.09-2.32,6.23-5.9,8.78c-0.82,0.58-0.38,1.66,1.17,1.1C115.6,68.23,118.38,65.19,119.38,59.85z" fill="#FFFFFF"/>
  </g>
</svg>

<svg viewBox="0 0 128 128" xmlns="http://www.w3.org/2000/svg">
  <defs/>
  <path d="M122.94,57.86 A16.87 16.87 0 1 1 89.2,57.86 A16.87 16.87 0 1 1 122.94,57.86 Z" fill="#4DD0E1" opacity="0.42"/>
  <path d="M104.21,46.15 C104.92,47.63 102.66,49.51 101.78,50.68 C99.49,53.73 100.68,56.1 98.97,58.88 C97.68,60.97 93.59,62.41 92.82,57.3 C92.34,54.1 94.34,50.48 95.7,49 C100.21,44.1 103.62,44.93 104.21,46.15 Z" fill="#FFFFFF"/>
  <path d="M106.07,76.22 C95.94,76.22 87.7,67.98 87.7,57.85 C87.7,47.72 95.94,39.48 106.07,39.48 C116.2,39.48 124.44,47.72 124.44,57.85 C124.44,67.98 116.19,76.22 106.07,76.22 Z M105.72,42.08 C97.02,42.08 89.94,49.16 89.94,57.86 C89.94,66.56 97.02,73.64 105.72,73.64 C114.42,73.64 121.5,66.56 121.5,57.86 C121.5,49.16 114.43,42.08 105.72,42.08 Z" fill="#4DC6E1"/>
  <path d="M110.92,99.87 A21.65 21.65 0 1 1 67.62,99.87 A21.65 21.65 0 1 1 110.92,99.87 Z" fill="#4DD0E1" opacity="0.42"/>
  <path d="M89.27,123.52 C76.23,123.52 65.62,112.91 65.62,99.87 C65.62,86.83 76.23,76.22 89.27,76.22 C102.31,76.22 112.92,86.83 112.92,99.87 C112.92,112.91 102.31,123.52 89.27,123.52 Z M89.87,79.11 C78.35,79.11 68.98,88.48 68.98,100 C68.98,111.52 78.35,120.89 89.87,120.89 C101.39,120.89 110.76,111.52 110.76,100 C110.76,88.48 101.39,79.11 89.87,79.11 Z" fill="#4DC6E1"/>
  <path d="M84.02,83.31 C88.42,83.01 89.94,86.15 88.85,88.64 C87.45,91.84 84.19,90.7 81.32,93.81 C79.34,95.96 75.11,98.29 74.52,93.54 C74,89.34 78.65,83.68 84.02,83.31 Z" fill="#FFFFFF" opacity="0.7"/>
  <path d="M96.72,89 C99.37,88.99 99.69,86.01 98.27,84.42 C96.63,81.97 91.14,82.23 92.44,86.27 C93.01,88.05 94.05,89.01 96.72,89 Z" fill="#FFFFFF"/>
  <path d="M81.32,43.86 A38.37 38.37 0 1 1 4.58,43.86 A38.37 38.37 0 1 1 81.32,43.86 Z" fill="#4DD0E1" opacity="0.42"/>
  <path d="M38.56,14.73 C42.95,16.24 44.11,20.16 42.76,23.51 C41.52,26.59 36.86,27.98 33.94,29.57 C29.49,31.98 26.26,35.11 23.85,39.56 C21.52,43.86 15.24,45.6 14.38,39.35 C13.71,34.46 16.75,27.5 19.6,23.93 C22.12,20.78 25.58,17.97 29.2,16.17 C31.75,14.91 35.79,13.78 38.56,14.73 Z" fill="#FFFFFF" opacity="0.7"/>
  <path d="M58.99,16.94 C60.79,18.46 61,21.25 58.51,22.12 C57.4,22.43 56.24,21.93 55.09,21.85 C52.75,21.69 51.78,22.52 49.78,21.67 C46.8,20.39 45.57,17.81 46.99,15.69 C47.69,14.65 49.02,14.12 50.2,13.89 C53.4,13.27 56.74,14.68 58.99,16.94 Z" fill="#FFFFFF"/>
  <path d="M43.45,84.23 C21.46,84.23 3.57,66.34 3.57,44.35 C3.57,22.36 21.46,4.48 43.45,4.48 C65.44,4.48 83.33,22.37 83.33,44.36 C83.33,66.35 65.43,84.23 43.45,84.23 Z M44.07,8.7 C24.01,8.7 7.7,25.01 7.7,45.07 C7.7,65.13 24.02,81.44 44.07,81.44 C64.12,81.44 80.44,65.12 80.44,45.07 C80.44,25.02 64.12,8.7 44.07,8.7 Z" fill="#4DC6E1"/>
  <path d="M72.05,50.5 C68.86,49.57 68.98,53 65.62,58.47 C63.38,62.11 58.66,66.84 50.98,68.73 C46.46,69.84 44.43,70.79 44.3,72.45 C44.07,75.28 47.92,76.04 53.51,74.58 C68.33,70.73 78.82,52.47 72.05,50.5 Z" fill="#FFFFFF"/>
  <path d="M105.63,104.96 C103.19,104.13 103.77,107.89 98.95,111.28 C93.81,114.9 90.7,114.03 90.52,116.08 C90.33,118.27 95.68,118.26 101.25,114.11 C106.08,110.53 108.1,105.8 105.63,104.96 Z" fill="#FFFFFF"/>
  <path d="M119.38,59.85 C119.96,56.78 119.23,50.33 116.12,52.39 C114.87,53.22 116.84,56.77 116.24,59.82 C115.44,63.91 113.92,66.05 110.34,68.6 C109.52,69.18 109.96,70.26 111.51,69.7 C115.6,68.23 118.38,65.19 119.38,59.85 Z" fill="#FFFFFF"/>
</svg>
